flaticon/symbols/gold.svg

<svg xmlns="http://www.w3.org/2000/svg" width="32" height="32" viewBox="0 0 24 24">
    <path d="M 12 0 C 6.242188 0 1.554688 5.382812 1.554688 12 C 1.554688 18.617188 6.242188 24 12 24 C 17.757812 24 22.445312 18.617188 22.445312 12 C 22.445312 5.382812 17.757812 0 12 0 Z M 12 23.109375 C 6.730469 23.109375 2.445312 18.125 2.445312 12 C 2.445312 5.875 6.730469 0.890625 12 0.890625 C 17.269531 0.890625 21.554688 5.875 21.554688 12 C 21.554688 18.125 17.269531 23.109375 12 23.109375 Z M 12 23.109375"/>
    <path d="M 12 1.777344 C 7.222656 1.777344 3.332031 6.363281 3.332031 12 C 3.332031 17.636719 7.222656 22.222656 12 22.222656 C 16.777344 22.222656 20.667969 17.636719 20.667969 12 C 20.667969 6.363281 16.777344 1.777344 12 1.777344 Z M 12 21.332031 C 7.710938 21.332031 4.222656 17.144531 4.222656 12 C 4.222656 6.855469 7.710938 2.667969 12 2.667969 C 16.289062 2.667969 19.777344 6.855469 19.777344 12 C 19.777344 17.144531 16.289062 21.332031 12 21.332031 Z M 12 21.332031"/>
    <path d="M 12 7.554688 C 10.636719 7.554688 9.109375 9.457031 9.109375 12 C 9.109375 14.542969 10.636719 16.445312 12 16.445312 C 13.363281 16.445312 14.890625 14.542969 14.890625 12 C 14.890625 9.457031 13.363281 7.554688 12 7.554688 Z M 12 15.554688 C 11.195312 15.554688 10 14.0625 10 12 C 10 9.9375 11.195312 8.445312 12 8.445312 C 12.804688 8.445312 14 9.9375 14 12 C 14 14.0625 12.804688 15.554688 12 15.554688 Z M 12 15.554688"/>
</svg>

<svg xmlns="http://www.w3.org/2000/svg" width="32" height="32" viewBox="0 0 24 24">
    <path d="M12 0C6.242 0 1.555 5.383 1.555 12S6.242 24 12 24s10.445-5.383 10.445-12S17.758 0 12 0zm0 23.11c-5.27 0-9.555-4.985-9.555-11.11C2.445 5.875 6.73.89 12 .89S21.555 5.876 21.555 12c0 6.125-4.285 11.11-9.555 11.11zm0 0"/>
    <path d="M12 1.777C7.223 1.777 3.332 6.363 3.332 12c0 5.637 3.89 10.223 8.668 10.223 4.777 0 8.668-4.586 8.668-10.223 0-5.637-3.89-10.223-8.668-10.223zm0 19.555c-4.29 0-7.777-4.187-7.777-9.332 0-5.145 3.488-9.332 7.777-9.332 4.29 0 7.777 4.187 7.777 9.332 0 5.145-3.488 9.332-7.777 9.332zm0 0"/>
    <path d="M12 7.555c-1.363 0-2.89 1.902-2.89 4.445s1.527 4.445 2.89 4.445c1.363 0 2.89-1.902 2.89-4.445S13.364 7.555 12 7.555zm0 8c-.805 0-2-1.492-2-3.555s1.195-3.555 2-3.555c.805 0 2 1.492 2 3.555s-1.195 3.555-2 3.555zm0 0"/>
</svg>
